X:301
T:Her Mantle So Green
M:3/4
L:1/4
Q:1/4=90
K:C
E/G/|"Am"A3/2 B/ A|"Em"G E G|"C"c/B/ c3/2 d/|"Am"e2 c/d/| \
e a g/a/|"Em"e d e/d/|
"F"c A G/E/|"G"G2 c/B/|"Am"A3/2 B/ A|"Em"G E G|"C"c/B/ c3/2 d/| \
"Am"e2 c/d/|e a g/a/|"Em"e d e/d/|
"F"c A "G"G|"Am"A2:|"Am"a3/2 b/ a|"Em"g e g|"Am"a3/2 g/ e| \
"Em"g2 e/g/|"Am"a3/2 g/ a|"Em"e d e/d/|"F"c A G/E/|
"G"G2 c/B/|"Am"A3/2 B/ A|"Em"G E G|"C"c/B/ c3/2 d/|"Em"e2 c/d/| \
"Am"e a g/a/|"Em"e d e/d/|"F"c A "G"G|"Am"A3:|
